images/ability.svg

<svg fill="none" height="112" viewBox="0 0 352 112" width="352" xmlns="http://www.w3.org/2000/svg"><path d="m24.4799 88.7231c-3.8163 0-7.4252-.3733-10.8267-1.12-3.3185-.6637-6.26363-1.7837-8.83547-3.36-2.48888-1.6592-4.438505-3.8577-5.84887-6.5955-1.41036-2.8207-2.11555-6.3052-2.11555-10.4533 0-3.8992.78815-7.3007 2.364438-10.2044 1.659253-2.9037 4.148132-5.1437 7.466632-6.72 3.31852-1.5763 7.50812-2.3644 12.56882-2.3644 2.8208 0 5.5585.2904 8.2133.8711s5.0193 1.3689 7.0933 2.3644c2.1571.9956 3.8578 2.0741 5.1022 3.2356l.7467 8.9599c-1.6593-.9955-3.6504-1.7837-5.9733-2.3644-2.323-.5807-4.8118-.8711-7.4667-.8711-4.0651 0-7.0518.6222-8.9599 1.8667-1.8252 1.1614-2.7378 3.0281-2.7378 5.5999 0 1.5763.4563 2.9867 1.3689 4.2311.9126 1.2445 2.1155 2.1985 3.6089 2.8622 1.5763.6637 3.194.9956 4.8533.9956 4.2311 0 7.1763-.2904 8.8355-.8711 1.7422-.5808 2.6133-1.7422 2.6133-3.4844v-23.1466c0-3.8163-1.2444-6.5541-3.7333-8.2133-2.4059-1.7422-5.8489-2.6133-10.3288-2.6133-3.6504 0-7.3422.6637-11.0755 1.9911-3.6504 1.2444-6.63706 2.7792-8.96001 4.6044v-16.4266c2.15703-1.3274 5.47553-2.5719 9.95551-3.7333 4.563-1.1615 9.6652-1.7422 15.3066-1.7422 1.9911 0 4.1896.1659 6.5955.4977 2.406.3319 4.8119.9541 7.2178 1.8667 2.4059.8296 4.6044 2.0741 6.5955 3.7333 2.0741 1.6593 3.7333 3.7748 4.9778 6.3466 1.2444 2.5719 1.8666 5.766 1.8666 9.5822l-.1244 29.7421c0 3.5674-1.203 6.4711-3.6089 8.7111-2.4059 2.157-5.8903 3.7333-10.4533 4.7289-4.48.9955-9.914 1.4933-16.3021 1.4933zm73.3305 0c-3.4844 0-6.9689-.2489-10.4533-.7467-3.4015-.4148-6.5126-1.2029-9.3333-2.3644-2.7378-1.2444-4.9363-2.9037-6.5955-4.9778-1.6593-2.157-2.4889-4.9362-2.4889-8.3377v-71.679702h18.1688v34.346502l-3.4844-5.8488c1.4933-1.7423 3.4015-3.1111 5.7244-4.1067 2.323-1.0785 4.6874-1.8252 7.0933-2.24s4.3975-.6222 5.9735-.6222c9.292 0 16.343 2.8207 21.155 8.4622 4.895 5.5585 7.342 13.7303 7.342 24.5154 0 6.3052-.829 11.6148-2.488 15.9289-1.66 4.314-3.983 7.757-6.969 10.3288-2.987 2.5719-6.471 4.4385-10.454 5.6-3.982 1.1615-8.379 1.7422-13.1906 1.7422zm-.2489-15.431c3.6505 0 6.5545-.7052 8.7115-2.1156 2.157-1.4933 3.691-3.5259 4.604-6.0977.996-2.5719 1.493-5.5171 1.493-8.8356 0-4.7288-.622-8.5036-1.866-11.3244-1.245-2.8207-2.945-4.8533-5.103-6.0977-2.157-1.2445-4.645-1.8667-7.4662-1.8667-1.6592 0-3.4844.2074-5.4755.6222-1.9911.4149-3.7748 1.0786-5.3511 1.9911v27.8755c0 1.4933.4563 2.6548 1.3689 3.4844s2.157 1.4519 3.7333 1.8667c1.6593.3318 3.443.4978 5.3511.4978zm44.0015 13.5643v-62.0975h18.542l.125 62.0975zm-.373-71.5552v-14.311075h19.164v14.311075zm51.536 71.5552h-18.418v-86.737378h18.418zm14.345 0v-62.0975h18.542l.125 62.0975zm-.373-71.5552v-14.311075h19.164v14.311075zm58.878 74.0441c-7.3 0-12.734-1.7007-16.302-5.1022-3.567-3.4844-5.351-8.3792-5.351-14.6844v-31.4843h-9.209v-14.1866h9.209v-17.2977h19.413v17.2977h13.814v14.1866h-13.814v29.1199c0 2.157.457 3.7748 1.369 4.8533.913.9956 2.448 1.4933 4.605 1.4933 1.244 0 2.613-.2488 4.106-.7466 1.494-.4978 2.738-1.12 3.734-1.8667v15.9288c-1.743.9126-3.651 1.5349-5.725 1.8667-1.991.4148-3.941.6222-5.849.6222zm36.846 21.9017c-2.074 0-4.106-.207-6.097-.622s-3.692-.954-5.102-1.618v-15.0573c1.327.4978 2.571.8297 3.733.9956 1.161.2489 2.364.3733 3.609.3733 2.074 0 3.857-.4977 5.351-1.4933 1.576-.9126 2.862-2.5304 3.858-4.8533.995-2.24 1.783-5.3096 2.364-9.2089l.373 10.5778-27.004-66.4531h21.28l14.311 44.1776h-1.867l14.187-44.1776h19.911l-24.764 63.9642c-2.24 5.8074-4.688 10.4118-7.343 13.813-2.571 3.402-5.268 5.849-8.088 7.342-2.821 1.494-5.725 2.24-8.712 2.24z" fill="#000" opacity=".04"/></svg>

<svg width="352" height="112" viewBox="0 0 352 112" fill="none" xmlns="http://www.w3.org/2000/svg">
<path opacity="0.04" d="M24.4799 88.7231C20.6636 88.7231 17.0547 88.3498 13.6532 87.6031C10.3347 86.9394 7.38957 85.8194 4.81773 84.2431C2.32885 82.5839 0.379225 80.3854 -1.03114 77.6476C-2.4415 74.8269 -3.14669 71.3424 -3.14669 67.1943C-3.14669 63.2951 -2.35854 59.8936 -0.782252 56.9899C0.877001 54.0862 3.36588 51.8462 6.68438 50.2699C10.0029 48.6936 14.1925 47.9055 19.2532 47.9055C22.074 47.9055 24.8117 48.1959 27.4665 48.7766C30.1213 49.3573 32.4858 50.1455 34.5598 51.141C36.7169 52.1366 38.4176 53.2151 39.662 54.3766L40.4087 63.3365C38.7494 62.341 36.7583 61.5528 34.4354 60.9721C32.1124 60.3914 29.6236 60.101 26.9687 60.101C22.9036 60.101 19.9169 60.7232 18.0088 61.9677C16.1836 63.1291 15.271 64.9958 15.271 67.5676C15.271 69.1439 15.7273 70.5543 16.6399 71.7987C17.5525 73.0432 18.7554 73.9972 20.2488 74.6609C21.8251 75.3246 23.4428 75.6565 25.1021 75.6565C29.3332 75.6565 32.2784 75.3661 33.9376 74.7854C35.6798 74.2046 36.5509 73.0432 36.5509 71.301V48.1544C36.5509 44.3381 35.3065 41.6003 32.8176 39.9411C30.4117 38.1989 26.9687 37.3278 22.4888 37.3278C18.8384 37.3278 15.1466 37.9915 11.4133 39.3189C7.7629 40.5633 4.77624 42.0981 2.45329 43.9233V27.4967C4.61032 26.1693 7.92882 24.9248 12.4088 23.7634C16.9718 22.6019 22.074 22.0212 27.7154 22.0212C29.7065 22.0212 31.905 22.1871 34.3109 22.5189C36.7169 22.8508 39.1228 23.473 41.5287 24.3856C43.9346 25.2152 46.1331 26.4597 48.1242 28.1189C50.1983 29.7782 51.8575 31.8937 53.102 34.4655C54.3464 37.0374 54.9686 40.2315 54.9686 44.0477L54.8442 73.7898C54.8442 77.3572 53.6412 80.2609 51.2353 82.5009C48.8294 84.6579 45.345 86.2342 40.782 87.2298C36.302 88.2253 30.868 88.7231 24.4799 88.7231ZM97.8104 88.7231C94.326 88.7231 90.8415 88.4742 87.3571 87.9764C83.9556 87.5616 80.8445 86.7735 78.0238 85.612C75.286 84.3676 73.0875 82.7083 71.4283 80.6342C69.769 78.4772 68.9394 75.698 68.9394 72.2965V0.616798H87.1082V34.9633L83.6238 29.1145C85.1171 27.3722 87.0253 26.0034 89.3482 25.0078C91.6712 23.9293 94.0356 23.1826 96.4415 22.7678C98.8474 22.353 100.839 22.1456 102.415 22.1456C111.707 22.1456 118.758 24.9663 123.57 30.6078C128.465 36.1663 130.912 44.3381 130.912 55.1232C130.912 61.4284 130.083 66.738 128.424 71.0521C126.764 75.3661 124.441 78.8091 121.455 81.3809C118.468 83.9528 114.984 85.8194 111.001 86.9809C107.019 88.1424 102.622 88.7231 97.8104 88.7231ZM97.5615 73.2921C101.212 73.2921 104.116 72.5869 106.273 71.1765C108.43 69.6832 109.964 67.6506 110.877 65.0788C111.873 62.5069 112.37 59.5617 112.37 56.2432C112.37 51.5144 111.748 47.7396 110.504 44.9188C109.259 42.0981 107.559 40.0655 105.401 38.8211C103.244 37.5766 100.756 36.9544 97.9348 36.9544C96.2756 36.9544 94.4504 37.1618 92.4593 37.5766C90.4682 37.9915 88.6845 38.6552 87.1082 39.5677V67.4432C87.1082 68.9365 87.5645 70.098 88.4771 70.9276C89.3897 71.7572 90.6341 72.3795 92.2104 72.7943C93.8697 73.1261 95.6534 73.2921 97.5615 73.2921ZM141.563 86.8564V24.7589H160.105L160.23 86.8564H141.563ZM141.19 15.3012V0.990125H160.354V15.3012H141.19ZM192.726 86.8564H174.308V0.119022H192.726V86.8564ZM207.071 86.8564V24.7589H225.613L225.738 86.8564H207.071ZM206.698 15.3012V0.990125H225.862V15.3012H206.698ZM265.576 89.3453C258.276 89.3453 252.842 87.6446 249.274 84.2431C245.707 80.7587 243.923 75.8639 243.923 69.5587V38.0744H234.714V23.8878H243.923V6.5901H263.336V23.8878H277.15V38.0744H263.336V67.1943C263.336 69.3513 263.793 70.9691 264.705 72.0476C265.618 73.0432 267.153 73.5409 269.31 73.5409C270.554 73.5409 271.923 73.2921 273.416 72.7943C274.91 72.2965 276.154 71.6743 277.15 70.9276V86.8564C275.407 87.769 273.499 88.3913 271.425 88.7231C269.434 89.1379 267.484 89.3453 265.576 89.3453ZM302.422 111.247C300.348 111.247 298.316 111.04 296.325 110.625C294.334 110.21 292.633 109.671 291.223 109.007V93.9497C292.55 94.4475 293.794 94.7794 294.956 94.9453C296.117 95.1942 297.32 95.3186 298.565 95.3186C300.639 95.3186 302.422 94.8209 303.916 93.8253C305.492 92.9127 306.778 91.2949 307.774 88.972C308.769 86.732 309.557 83.6624 310.138 79.7631L310.511 90.3409L283.507 23.8878H304.787L319.098 68.0654H317.231L331.418 23.8878H351.329L326.565 87.852C324.325 93.6594 321.877 98.2638 319.222 101.665C316.651 105.067 313.954 107.514 311.134 109.007C308.313 110.501 305.409 111.247 302.422 111.247Z" fill="black"/>
</svg>
